X:114
T:The 30,000 ft. Rag
M:4/4
L:1/8
C: Paul Gitlitz 2001 
R:Rag
B:Anna's Smile
N: Written on a jet headed somewhere.
K:F
"F"FcA=B- "Fdim" B2c2|"F"FAc=B- "Fdim" B4|"F"FcA=B- "Fdim" B2c2|"Bb"BABA- "C7" A2G2|! 
"F"FcA=B- "Fdim" B2c2|"F"FAc=B- "Fdim" B4|"F"FcA=B- "Fdim" B2c2|"C7" (3B2A2G2 "F"F3/2F/2ED|!
|:"C7"C2D^D EG-GA|BABA- A2G2|"F"FE F2A^G A2|c=B c2f2ed|! 
"C7"c2D^D EG-GA |BABA- A2G2|"F"F3F DCA,C|1"F"F3F E2D2:|2"F"F3F E2_E2|!
|"Bb"D2DE FE D2|"F"C=B, C2F4|"C7"E2EF GF E2|"F"F2G2A4|!
"Bb"BABc dcde|"F"fe f2a2f2|"C7"e2ef gf e2|"F"f8|]
